core/assets/icons/faq.svg

<svg width="24" height="24" viewBox="0 0 24 24" xmlns="http://www.w3.org/2000/svg"><g id="faq"><path id="Vector" d="M5.763 17H20V5H4V18.385L5.763 17ZM6.455 19L2 22.5V4C2 3.73478 2.10536 3.48043 2.29289 3.29289C2.48043 3.10536 2.73478 3 3 3H21C21.2652 3 21.5196 3.10536 21.7071 3.29289C21.8946 3.48043 22 3.73478 22 4V18C22 18.2652 21.8946 18.5196 21.7071 18.7071C21.5196 18.8946 21.2652 19 21 19H6.455ZM11 14H13V16H11V14ZM8.567 8.813C8.69692 8.16279 9.00882 7.56285 9.4664 7.08298C9.92397 6.60311 10.5084 6.26304 11.1517 6.10236C11.795 5.94167 12.4707 5.96697 13.1002 6.17532C13.7297 6.38366 14.287 6.76647 14.7075 7.27922C15.1279 7.79196 15.394 8.41355 15.475 9.07166C15.5559 9.72976 15.4483 10.3973 15.1646 10.9966C14.881 11.596 14.433 12.1024 13.8727 12.4571C13.3125 12.8118 12.6631 13 12 13H11V11H12C12.2841 11 12.5623 10.9193 12.8023 10.7673C13.0423 10.6154 13.2343 10.3984 13.3558 10.1416C13.4773 9.8848 13.5234 9.5988 13.4887 9.31684C13.454 9.03489 13.34 8.76858 13.1598 8.54891C12.9797 8.32924 12.7409 8.16523 12.4712 8.07597C12.2015 7.98671 11.912 7.97587 11.6364 8.04471C11.3608 8.11354 11.1104 8.25923 10.9144 8.46482C10.7183 8.6704 10.5847 8.92743 10.529 9.206L8.567 8.813V8.813Z"/></g></svg>

<svg xmlns="http://www.w3.org/2000/svg" width="24" height="24" fill="none"><path fill="#191C22" d="M5.763 17H20V5H4v13.385L5.763 17Zm.692 2L2 22.5V4a1 1 0 0 1 1-1h18a1 1 0 0 1 1 1v14a1 1 0 0 1-1 1H6.455ZM11 14h2v2h-2v-2ZM8.567 8.813A3.5 3.5 0 1 1 12 13h-1v-2h1a1.5 1.5 0 1 0-1.471-1.794l-1.962-.393Z"/></svg>
